src/ui/notification.svg

<?xml version="1.0" encoding="UTF-8"?><svg xmlns="http://www.w3.org/2000/svg" viewBox="0 0 32 32"><defs><style>.uuid-9de020d5-0bd3-45f3-936d-5d6f7e211fdb{fill:none;}.uuid-9de020d5-0bd3-45f3-936d-5d6f7e211fdb,.uuid-b9556b69-0b13-4243-83f6-461896cdadc8{stroke-width:0px;}.uuid-b9556b69-0b13-4243-83f6-461896cdadc8{fill:#151515;}</style></defs><g id="uuid-b88ecb67-8266-43cb-999a-30efa05f3b51"><rect class="uuid-9de020d5-0bd3-45f3-936d-5d6f7e211fdb" x="0" width="32" height="32"/></g><g id="uuid-053f6788-e33a-4142-abf4-826a5ede1506"><path class="uuid-b9556b69-0b13-4243-83f6-461896cdadc8" d="M29,22c-1.103,0-2-.897-2-2v-4c0-3.0288-1.2681-5.9546-3.4785-8.0269-1.3248-1.242-2.8957-2.1063-4.5903-2.5726.3568-.5483.5688-1.1992.5688-1.9006,0-1.9297-1.5703-3.5-3.5-3.5s-3.5,1.5703-3.5,3.5c0,.7034.2129,1.3564.5716,1.9056-4.6672,1.3206-8.0716,5.7484-8.0716,10.9366v3.6577c0,1.103-.897,2-2,2-.5522,0-1,.4478-1,1v3.5c0,.8271.6729,1.5,1.5,1.5h8.0505c.2524,2.2438,2.1392,4,4.4495,4s4.197-1.7562,4.4495-4h8.0505c.8271,0,1.5-.6729,1.5-1.5v-3.5c0-.5522-.4478-1-1-1ZM16,2c.8271,0,1.5.6729,1.5,1.5s-.6729,1.5-1.5,1.5-1.5-.6729-1.5-1.5.6729-1.5,1.5-1.5ZM16,30c-1.2072,0-2.2171-.8603-2.4494-2h4.8988c-.2323,1.1397-1.2422,2-2.4494,2ZM28,26H4v-2.1265c1.7231-.4453,3-2.0132,3-3.8735v-3.6577c0-4.9229,3.6895-9.0181,8.3989-9.3228,2.5254-.1626,4.9209.6934,6.7544,2.4126,1.8359,1.7207,2.8467,4.0532,2.8467,6.5679v4c0,1.8604,1.2769,3.4282,3,3.8735v2.1265Z"/></g></svg>

<svg xmlns="http://www.w3.org/2000/svg" viewBox="0 0 32 32">
  <path d="M0 0h32v32H0z" fill="none"/>
  <path d="M29 22c-1.103 0-2-.897-2-2v-4c0-3.029-1.268-5.955-3.478-8.027a10.924 10.924 0 0 0-4.59-2.572c.356-.549.568-1.2.568-1.901C19.5 1.57 17.93 0 16 0s-3.5 1.57-3.5 3.5c0 .703.213 1.356.572 1.906C8.404 6.726 5 11.154 5 16.341V20c0 1.103-.897 2-2 2a1 1 0 0 0-1 1v3.5c0 .827.673 1.5 1.5 1.5h8.05c.253 2.244 2.14 4 4.45 4s4.197-1.756 4.45-4h8.05c.827 0 1.5-.673 1.5-1.5V23a1 1 0 0 0-1-1ZM16 2c.827 0 1.5.673 1.5 1.5S16.827 5 16 5s-1.5-.673-1.5-1.5S15.173 2 16 2Zm0 28a2.504 2.504 0 0 1-2.45-2h4.9A2.504 2.504 0 0 1 16 30Zm12-4H4v-2.127A4.008 4.008 0 0 0 7 20v-3.658c0-4.923 3.69-9.018 8.399-9.322 2.525-.163 4.92.693 6.754 2.412A8.914 8.914 0 0 1 25 16v4a4.008 4.008 0 0 0 3 3.873V26Z" fill="#151515"/>
</svg>
